icons/trash-2.svg

<svg width="24" height="24" viewBox="0 0 24 24" fill="none" xmlns="http://www.w3.org/2000/svg">
<path d="M4 5.93668H8.92267M8.92267 5.93668H15.0773M8.92267 5.93668C8.92267 0.687797 15.0773 0.687751 15.0773 5.93668M15.0773 5.93668H20M13.6 10.3679C13.8576 12.5417 13.8751 14.7305 13.6 16.904M10.4 10.3679C10.1424 12.5417 10.1249 14.7305 10.4 16.904M5.6 8.70622C5.6 8.70622 5.3477 14.9247 6.04506 17.9333C6.73032 20.8896 7.79933 22 10.7413 22H13.2587C16.2004 22 17.2708 20.8907 17.9557 17.9335C18.6525 14.9249 18.4 8.70622 18.4 8.70622" stroke="black" stroke-width="2" stroke-linecap="round" stroke-linejoin="round"/>
</svg>

<svg xmlns="http://www.w3.org/2000/svg" width="24" height="24" viewBox="0 0 24 24" fill="none" stroke="currentColor" stroke-width="2" stroke-linecap="round" stroke-linejoin="round">
<path d="M4 5.937h4.923m0 0h6.154m-6.154 0c0-5.25 6.154-5.25 6.154 0m0 0H20m-6.4 4.43a26.8 26.8 0 0 1 0 6.537m-3.2-6.536a26.8 26.8 0 0 0 0 6.536M5.6 8.706s-.252 6.219.445 9.227C6.73 20.89 7.8 22 10.741 22h2.518c2.941 0 4.012-1.11 4.697-4.067.697-3.008.444-9.227.444-9.227"/>
</svg>
